!!!COM: Palestrina, Giovanni Perluigi da
!!!OPR: Descendit angelus Domini
!!!OTL: Agnus II
**kern	**kern	**kern	**kern	**kern
*Ibass	*Itenor	*Icalto	*Icalto	*Icant
!Bassus	!Tenor	!Altus 2	!Altus 1	!Cantus
*clefF4	*clefGv2	*clefG2	*clefG2	*clefG2
*k[b-]	*k[b-]	*k[b-]	*k[b-]	*k[b-]
*F:ion	*F:ion	*F:ion	*F:ion	*F:ion
*M4/2	*M4/2	*M4/2	*M4/2	*M4/2
=1	=1	=1	=1	=1
0r	1r	0r	0r	1f
.	2.F	.	.	[1cc
.	4G	.	.	.
=2	=2	=2	=2	=2
0r	4A	0r	1c	2cc]
.	4B-	.	.	.
.	4c	.	.	2cc
.	4A	.	.	.
.	2B-	.	[1f	2dd
.	2A	.	.	2cc
=3	=3	=3	=3	=3
0r	1d	0r	2f]	1ff
.	.	.	2f	.
.	2c	.	2.g	2ee
.	[2B-	.	.	[2dd
.	.	.	4f	.
=4	=4	=4	=4	=4
0r	2B-]	0r	1b-	2dd]
.	4A	.	.	4cc
.	4G	.	.	4b-
.	2A	.	2a	2cc
.	2B-	.	[2g	2dd
=5	=5	=5	=5	=5
0r	1c	0r	2g]	2g
.	.	.	4f	1cc
.	.	.	4e	.
.	2A	.	2f	.
.	2G	.	2g	2b-
=6	=6	=6	=6	=6
0r	2A	2.c	2e	1a
.	2F	.	2f	.
.	.	4d	.	.
.	2.c	4e	2g	1g
.	.	4f	.	.
.	.	4g	2e	.
.	4B-	4e	.	.
=7	=7	=7	=7	=7
0r	1A	2f	1.a	[0cc
.	.	2e	.	.
.	1F	1a	.	.
.	.	.	4g	.
.	.	.	4f	.
=8	=8	=8	=8	=8
0r	1r	2g	2e	1cc_
.	.	1f	1a	.
.	1F	.	.	1cc_
.	.	4e	4g	.
.	.	4d	4f	.
=9	=9	=9	=9	=9
1r	1.c	2e	2g	0cc]
.	.	2f	1f	.
1C	.	1g	.	.
.	2c	.	2e	.
=10	=10	=10	=10	=10
1.F	2d	1f	2.f	2r
.	2c	.	.	4f
.	.	.	8e	4g
.	.	.	8d	.
.	1f	2r	1c	4a
.	.	.	.	4b-
2F	.	2a	.	4cc
.	.	.	.	4a
=11	=11	=11	=11	=11
2G	2e	2g	0r	2b-
2F	1f	2a	.	2a
1B-	.	2f	.	1dd
.	4e	2g	.	.
.	4d	.	.	.
=12	=12	=12	=12	=12
2A	4e	2a	0r	2cc
.	4f	.	.	.
1G	2g	2d	.	1b-
.	1e	1g	.	.
4F	.	.	.	4a
4E	.	.	.	4g
=13	=13	=13	=13	=13
2F	1d	1r	2r	2a
2G	.	.	2g	2b-
2C	2.c	2r	2g	1cc
2c	.	2g	[2e	.
.	4B-	.	.	.
=14	=14	=14	=14	=14
2c	2A	2a	2e]	2r
2A	2F	2cc	2a	2cc
1d	1r	2b-	2f	2dd
.	.	[2a	2f	2ff
=15	=15	=15	=15	=15
2c	0r	4a]	1g	2ee
.	.	4g	.	.
2B-	.	1g	.	2.dd
1A	.	.	1c	.
.	.	.	.	4cc
.	.	2f	.	[2cc
=16	=16	=16	=16	=16
1G	1r	1g	2.d	2cc]
.	.	.	.	2b-
.	.	.	4e	.
1F	2r	1c	1f	[1a
.	2c	.	.	.
=17	=17	=17	=17	=17
2F	2d	2r	2r	1a]
2D	2f	2d	2f	.
1G	2e	4B-	2g	1g
.	.	4c	.	.
.	[2d	4d	2b-	.
.	.	4e	.	.
=18	=18	=18	=18	=18
2F	4d]	2f	2a	0r
.	4c	.	.	.
2E	1c	2g	2.g	.
1D	.	2a	.	.
.	.	.	4f	.
.	2B-	2d	[2f	.
=19	=19	=19	=19	=19
1C	1c	1g	2f]	2r
.	.	.	2e	2cc
1r	1F	2r	4a	2cc
.	.	.	4b-	.
.	.	2f	4cc	2a
.	.	.	4a	.
=20	=20	=20	=20	=20
0r	2r	2g	4b-	1dd
.	.	.	4a	.
.	2G	2b-	4g	.
.	.	.	4f	.
.	2A	2a	4e	2cc
.	.	.	4f	.
.	2B-	[2g	2d	2b-
=21	=21	=21	=21	=21
1r	1F	4g]	1c	1a
.	.	4f	.	.
.	.	1f	.	.
2r	1c	.	1r	1g
2c	.	2e	.	.
=22	=22	=22	=22	=22
2c	1F	1a	2r	1cc
2A	.	.	2f	.
1d	1r	2.a	2f	2dd
.	.	.	2d	2ff
.	.	4b-	.	.
=23	=23	=23	=23	=23
2c	0r	2cc	1g	2ee
2B-	.	2g	.	2.dd
2.A	.	1a	2f	.
.	.	.	.	4cc
.	.	.	2e	[2cc
4G	.	.	.	.
=24	=24	=24	=24	=24
2F	0r	2a	1d	2cc]
2G	.	4g	.	2b-
.	.	4f	.	.
1A	.	4e	1c	1cc
.	.	4d	.	.
.	.	2e	.	.
=25	=25	=25	=25	=25
1F	2r	1f	2r	1cc
.	1f	.	1a	.
1r	.	1c	.	2r
.	2e	.	2g	[2cc
=26	=26	=26	=26	=26
0r	2f	0r	2a	2cc]
.	2d	.	2f	2b-
.	[1c	.	4e	2cc
.	.	.	4d	.
.	.	.	4c	2a
.	.	.	4d	.
=27	=27	=27	=27	=27
0r	2c]	0r	4e	4g
.	.	.	4f	4a
.	2G	.	2.g	4b-
.	.	.	.	4g
.	1d	.	.	2a
.	.	.	4f	.
.	.	.	[2f	2f
=28	=28	=28	=28	=28
0r	2c	2r	2f]	0g
.	2c	1cc	2e	.
.	1G	.	1d	.
.	.	2b-	.	.
=29	=29	=29	=29	=29
2r	2A	2cc	1c	2e
1c	2F	2a	.	2f
.	1G	2.g	2r	1d
2B-	.	.	[2g	.
.	.	4f	.	.
=30	=30	=30	=30	=30
2c	0r	4e	2g]	2g
.	.	4d	.	.
2A	.	2c	2f	2a
4G	.	1d	1g	4b-
4A	.	.	.	4cc
4B-	.	.	.	[2dd
4G	.	.	.	.
=31	=31	=31	=31	=31
2A	0r	1a	2e	4dd]
.	.	.	.	4cc
2F	.	.	2f	1cc
1G	.	2.g	1d	.
.	.	.	.	2b
.	.	4f	.	.
=32	=32	=32	=32	=32
2r	1r	2e	2r	0cc
1F	.	2f	1a	.
.	2r	1c	.	.
2E	[2c	.	2g	.
=33	=33	=33	=33	=33
2F	2c]	1r	2a	0r
2D	2B-	.	2f	.
2.C	2c	2r	2.e	.
.	2A	[2cc	.	.
4D	.	.	4f	.
=34	=34	=34	=34	=34
4E	4G	2cc]	2e	0r
4F	4A	.	.	.
2G	4B-	2b-	2.d	.
.	4G	.	.	.
2F	2A	2a	.	.
.	.	.	4c	.
2E	2c	2g	[2c	.
=35	=35	=35	=35	=35
1D	1F	2a	2c]	2r
.	.	4g	2B	1ff
.	.	4f	.	.
1C	1r	2a	1c	.
.	.	2g	.	2ee
=36	=36	=36	=36	=36
0r	1.f	1.a	1r	2ff
.	.	.	.	2dd
.	.	.	2r	4cc
.	.	.	.	4dd
.	2e	2g	[2cc	4ee
.	.	.	.	4cc
=37	=37	=37	=37	=37
1r	2f	2a	2cc]	4dd
.	.	.	.	4ee
.	2d	2f	2b-	1ff
2r	1c	1g	2cc	.
[2c	.	.	2c	2ee
=38	=38	=38	=38	=38
2c]	1G	2g	1d	1dd
2B-	.	1g	.	.
2c	1r	.	2e	2r
2A	.	2f	4d	[2cc
.	.	.	4c	.
=39	=39	=39	=39	=39
4G	1r	1g	1d	2cc]
4A	.	.	.	.
4B-	.	.	.	2b-
4G	.	.	.	.
2A	2r	2e	1c	2cc
2F	[2c	2f	.	2a
=40	=40	=40	=40	=40
1G	2c]	2.d	1r	4g
.	.	.	.	4a
.	2B-	.	.	4b-
.	.	4e	.	4g
1F	2c	1f	1c	4a
.	.	.	.	4b-
.	2A	.	.	4cc
.	.	.	.	4a
=41	=41	=41	=41	=41
0r	4G	1g	1d	4b-
.	4A	.	.	4cc
.	4B-	.	.	2.dd
.	4G	.	.	.
.	2A	2e	1a	.
.	.	.	.	4cc
.	2F	2f	.	[2cc
=42	=42	=42	=42	=42
1r	1G	1d	2.g	2cc]
.	.	.	.	2b
.	.	.	4f	.
2r	2.A	1c	2e	[1cc
[2F	.	.	[2a	.
.	4G	.	.	.
=43	=43	=43	=43	=43
2F]	4A	2c	2a]	1cc]
.	4B-	.	.	.
2E	2c	2g	2.g	.
2F	2A	2a	.	1r
.	.	.	4f	.
2D	4G	2b-	[2f	.
.	4F	.	.	.
=44	=44	=44	=44	=44
0C	1G	1cc	2f]	1r
.	.	.	4e	.
.	.	.	4d	.
.	[1c	2r	1e	1g
.	.	[2cc	.	.
=45	=45	=45	=45	=45
0F	2c]	2cc]	[0f	2a
.	2d	2.b-	.	2b-
.	2c	.	.	1cc
.	.	8a	.	.
.	.	8g	.	.
.	2c	2a	.	.
=46	=46	=46	=46	=46
0BB-	0B-	0b-	1f_	0dd
.	.	.	1f_	.
=47	=47	=47	=47	=47
0F	0c	0a	0f]	0cc
==	==	==	==	==
*-	*-	*-	*-	*-
!!!CDT: 1525/^1526/-1594/2/2
!!!OCY: Italia
!!!AGN: Mass (Parody)
!!!AST: renaissance, vocal
!!!ASW: Motet 1532 (Penet)
!!!PWK: Masses, Book 11
!!!RNB: Cadence finals: C
!!!YOR: Le Opere Complete, v. 28, p. 1
!!!YOO: Rome, Italy: Fratelli Scalera
!!!END: 1992//
!!!EED: John Miller
!!!YEC: Copyright 2000, John Miller
!!!YEN: United States of America
!!!YEM: Rights to all derivative electronic formats reserved.
!!!YEM: Refer to licensing agreement for further details.
!!!YEM: This file must be accompanied by the licensing agreement.
!!!YEM: A copy of the licensing agreement may be found at http://www.music-cog.ohio-state.edu/HumdrumDatabases/Palestrina/license.txt
!!!EMD: converted to Humdrum by Bret Aarden
